svg/link.svg

<svg width="24" height="24" viewBox="0 0 24 24" fill="none" xmlns="http://www.w3.org/2000/svg">
<path d="M8 8C5.75228 8 4 9.75228 4 12C4 14.2477 5.75228 16 8 16H10C10.5523 16 11 16.4477 11 17C11 17.5523 10.5523 18 10 18H8C4.64772 18 2 15.3523 2 12C2 8.64772 4.64772 6 8 6H10C10.5523 6 11 6.44772 11 7C11 7.55228 10.5523 8 10 8H8ZM13 7C13 6.44772 13.4477 6 14 6H16C19.3523 6 22 8.64772 22 12C22 15.3523 19.3523 18 16 18H14C13.4477 18 13 17.5523 13 17C13 16.4477 13.4477 16 14 16H16C18.2477 16 20 14.2477 20 12C20 9.75228 18.2477 8 16 8H14C13.4477 8 13 7.55228 13 7ZM7 12C7 11.4477 7.44772 11 8 11H16C16.5523 11 17 11.4477 17 12C17 12.5523 16.5523 13 16 13H8C7.44772 13 7 12.5523 7 12Z" fill="#0D0D0D"/>
</svg>

<svg width="24" height="24" fill="none" xmlns="http://www.w3.org/2000/svg"><path d="M8 8c-2.248 0-4 1.752-4 4s1.752 4 4 4h2a1 1 0 110 2H8c-3.352 0-6-2.648-6-6s2.648-6 6-6h2a1 1 0 110 2H8zm5-1a1 1 0 011-1h2c3.352 0 6 2.648 6 6s-2.648 6-6 6h-2a1 1 0 110-2h2c2.248 0 4-1.752 4-4s-1.752-4-4-4h-2a1 1 0 01-1-1zm-6 5a1 1 0 011-1h8a1 1 0 110 2H8a1 1 0 01-1-1z" fill="#0D0D0D"/></svg>
